**kern	**kern	**dynam
*part1	*part1	*part1
*staff2	*staff1	*
*I"Piano	*	*
*clefF4	*clefF4	*
*k[f#c#]	*k[f#c#]	*
=1	=1	=1
4GGG#X 4GG#X	4E 4Bn 4d 4e	p
4GGG# 4GG#	4E 4B 4d 4e	.
4GGG# 4GG#	4E 4B 4d 4e	.
=	=	=
2.GGGn 2.GGn	2.E 2.B-X 2.c#X 2.e	.
=	=	=
4GGG 4GG	4E 4A 4c# 4e	<
4GGG 4GG	4E 4A 4c# 4e	.
4GGG 4GG	4E 4A 4c# 4e	.
=	=	=
2.FFF# 2.FF#	(2.D 2.A 2.d	[ >
=	=	=
2.EE 2.E	2.G) 2.c#	] pp
=	=	=
2.FF# 2.D	2.F# 2.B	.
=	=	=
2.FF# 2.C#	2.E 2.F# 2.A#X	.
=	=	=
[2.BBB [2.FF# [2.BB	[2.D [2.F# [2.B	.
=	=	=
2.BBB;] 2.FF#] 2.BB]	2.D;] 2.F#] 2.B]	.
=	=	=
*-	*-	*-
!!!system-decoration: {(s1,s2)}
